X: 10
T: Going To The Well For Water
Z: NfldWhistler
S: https://thesession.org/tunes/455#setting47045
R: slide
M: 12/8
L: 1/8
K: Dmaj
|:A2f A2f A2f fed|B2g B2g B2g gfe|
cdc ~B3 Ace a2f|1 gef edc dfe dcB:|2 gef edc dfe d2e||
|:faf fed eae edc|dad dcB c2c cBA|
GBB GBB FAA FAA|1 EDE ~e2d cBc d2e:|2 EDE ~e2d cBc d2B||

